lib/flags/m/214.svg

<svg xmlns="http://www.w3.org/2000/svg" fill="none" viewBox="0 0 20 15"><mask id="214_svg__a" width="20" height="15" x="0" y="0" mask-type="alpha" maskUnits="userSpaceOnUse"><path fill="#fff" d="M0 0H20V15H0z"/></mask><g mask="url(#214_svg__a)"><path fill="#C51918" fill-rule="evenodd" d="M0 0V15H20V0H0Z" clip-rule="evenodd"/><mask id="214_svg__b" width="20" height="15" x="0" y="0" mask-type="alpha" maskUnits="userSpaceOnUse"><path fill="#fff" fill-rule="evenodd" d="M0 0V15H20V0H0Z" clip-rule="evenodd"/></mask><g mask="url(#214_svg__b)"><path fill="#F7FCFF" fill-rule="evenodd" d="M8.75 0H11.25V6.25H20V8.75H11.25V15H8.75V8.75H0V6.25H8.75V0Z" clip-rule="evenodd"/><path fill="#4257BF" d="M0 0H8.75V6.25H0z"/><path fill="#4257BF" d="M11.25 8.75H20V15H11.25z"/><path fill="#309404" d="M8.52307 6.94421 9.14523 7.00376C9.03874 8.11634 9.17713 8.58513 9.40199 8.58513V9.21013C8.62425 9.21013 8.38407 8.39649 8.52307 6.94421zM11.5167 6.94421 10.8945 7.00376C11.001 8.11634 10.8626 8.58513 10.6377 8.58513V9.21013C11.4155 9.21013 11.6557 8.39649 11.5167 6.94421z"/><path fill="#003994" d="M9.205 6.683H9.796V7.606H9.205z"/><path fill="#003994" d="M10.1136 7.77881H10.7046V8.24734C10.7046 8.49838 10.501 8.70189 10.25 8.70189H10.1136V7.77881Z"/><path fill="#DE2110" d="M10.068 6.625H10.658999999999999V7.548H10.068z"/><path fill="#DE2110" d="M9.20453 7.77881H9.79544V8.70189H9.65907C9.40804 8.70189 9.20453 8.49838 9.20453 8.24734V7.77881Z"/><path fill="#00319C" d="M8.959 6.63085L8.54095 6.16624C8.98242 5.76902 9.44252 5.5625 9.91637 5.5625C10.3902 5.5625 10.8503 5.76902 11.2918 6.16624L10.8737 6.63085C10.5394 6.33001 10.2219 6.1875 9.91637 6.1875C9.61085 6.1875 9.29335 6.33001 8.959 6.63085Z"/><path fill="#DE2110" d="M9.00447 9.74621L8.58643 9.2816C9.02789 8.88438 9.48799 8.67786 9.96184 8.67786C10.4357 8.67786 10.8958 8.88438 11.3372 9.2816L10.9192 9.74621C10.5849 9.44537 10.2674 9.30286 9.96184 9.30286C9.65632 9.30286 9.33882 9.44537 9.00447 9.74621Z"/></g></g></svg>

<svg xmlns="http://www.w3.org/2000/svg" fill="none" viewBox="0 0 20 15"><mask id="214_svg__a" width="20" height="15" x="0" y="0" maskUnits="userSpaceOnUse"><path fill="#fff" d="M0 0h20v15H0z"/></mask><g mask="url(#214_svg__a)"><path fill="#C51918" fill-rule="evenodd" d="M0 0v15h20V0H0z" clip-rule="evenodd"/><mask id="214_svg__b" width="20" height="15" x="0" y="0" maskUnits="userSpaceOnUse"><path fill="#fff" fill-rule="evenodd" d="M0 0v15h20V0H0z" clip-rule="evenodd"/></mask><g mask="url(#214_svg__b)"><path fill="#F7FCFF" fill-rule="evenodd" d="M8.75 0h2.5v6.25H20v2.5h-8.75V15h-2.5V8.75H0v-2.5h8.75V0z" clip-rule="evenodd"/><path fill="#4257BF" d="M0 0h8.75v6.25H0zm11.25 8.75H20V15h-8.75z"/><path fill="#309404" d="M8.523 6.944l.622.06c-.106 1.112.032 1.581.257 1.581v.625c-.778 0-1.018-.814-.879-2.266zm2.994 0l-.622.06c.106 1.112-.032 1.581-.257 1.581v.625c.777 0 1.018-.814.879-2.266z"/><path fill="#003994" d="M9.205 6.683h.591v.923h-.591zm.909 1.096h.59v.468a.455.455 0 01-.454.455h-.136v-.923z"/><path fill="#DE2110" d="M10.068 6.625h.591v.923h-.591zm-.863 1.154h.59v.923H9.66a.455.455 0 01-.454-.455V7.78z"/><path fill="#00319C" d="M8.959 6.63l-.418-.464c.441-.397.902-.604 1.375-.604.474 0 .934.207 1.376.604l-.418.465c-.335-.301-.652-.444-.958-.444-.305 0-.623.143-.957.444z"/><path fill="#DE2110" d="M9.004 9.746l-.418-.464c.442-.398.902-.604 1.376-.604.474 0 .934.206 1.375.604l-.418.464c-.334-.3-.652-.443-.957-.443-.306 0-.623.142-.958.443z"/></g></g></svg>
